svg/shop_bag-11.svg

<?xml version="1.0" encoding="UTF-8" standalone="no"?>
<!-- Created with Inkscape (http://www.inkscape.org/) -->

<svg
   xmlns:dc="http://purl.org/dc/elements/1.1/"
   xmlns:cc="http://creativecommons.org/ns#"
   xmlns:rdf="http://www.w3.org/1999/02/22-rdf-syntax-ns#"
   xmlns:svg="http://www.w3.org/2000/svg"
   xmlns="http://www.w3.org/2000/svg"
   xmlns:sodipodi="http://sodipodi.sourceforge.net/DTD/sodipodi-0.dtd"
   xmlns:inkscape="http://www.inkscape.org/namespaces/inkscape"
   version="1.1"
   width="11"
   height="11"
   viewBox="0 0 11 11"
   id="svg2"
   inkscape:version="0.91 r13725"
   sodipodi:docname="shop_bag-11.svg">
  <sodipodi:namedview
     pagecolor="#ffffff"
     bordercolor="#666666"
     borderopacity="1"
     objecttolerance="10"
     gridtolerance="10"
     guidetolerance="10"
     inkscape:pageopacity="0"
     inkscape:pageshadow="2"
     inkscape:window-width="1920"
     inkscape:window-height="1016"
     id="namedview7"
     showgrid="false"
     fit-margin-top="0"
     fit-margin-left="0"
     fit-margin-right="0"
     fit-margin-bottom="0"
     inkscape:zoom="16.857143"
     inkscape:cx="5.6186441"
     inkscape:cy="5.6041165"
     inkscape:window-x="0"
     inkscape:window-y="27"
     inkscape:window-maximized="1"
     inkscape:current-layer="svg2" />
  <metadata
     id="metadata8">
    <rdf:RDF>
      <cc:Work
         rdf:about="">
        <dc:format>image/svg+xml</dc:format>
        <dc:type
           rdf:resource="http://purl.org/dc/dcmitype/StillImage" />
        <dc:title></dc:title>
      </cc:Work>
    </rdf:RDF>
  </metadata>
  <defs
     id="defs6" />
  <rect
     width="14"
     height="14"
     x="-1.5"
     y="-0.71428609"
     id="canvas"
     style="visibility:hidden;fill:none;stroke:none" />
  <path
     d="m 4.7142857,0.771428 c -0.7857143,0 -1.5714286,0.802194 -1.5714286,1.571429 l 0,0.785714 -0.5892857,0 0,7.071429 5.8928572,0 0,-7.071429 -0.5892857,0 0,-0.785714 c 0,-0.785714 -0.793954,-1.571429 -1.5714286,-1.571429 z m 0.3928572,0.982143 0.7857142,0 C 6.5685037,1.753571 6.875,2.224543 6.875,2.735714 l 0,0.392857 -2.75,0 0,-0.392857 c 0,-0.494376 0.2402629,-0.982143 0.9821429,-0.982143 z m -3.5357143,1.375 C 0.5055682,3.128571 0,3.634139 0,4.7 L 0,8.628571 C 0,9.694432 0.5879641,10.2 1.5714286,10.2 Z m 7.8571424,0 0,7.071429 C 10.412036,10.2 11,9.612036 11,8.628571 L 11,4.7 C 11,3.667098 10.510911,3.128571 9.428571,3.128571 Z"
     id="luggage"
     style="fill:#000000;fill-opacity:1;stroke:none"
     inkscape:connector-curvature="0" />
</svg>

<svg xmlns="http://www.w3.org/2000/svg" width="11" height="11">
    <path visibility="hidden" fill="none" d="M-1.5-.714h14v14h-14z"/>
    <path d="M4.714.771c-.785 0-1.571.803-1.571 1.572v.786h-.59V10.2h5.893V3.129h-.589v-.786c0-.786-.794-1.572-1.571-1.572zm.393.983h.786c.676 0 .982.47.982.982v.393h-2.75v-.393c0-.495.24-.982.982-.982zM1.571 3.129C.506 3.129 0 3.634 0 4.7v3.929C0 9.694.588 10.2 1.571 10.2zm7.858 0V10.2c.983 0 1.571-.588 1.571-1.571V4.7c0-1.033-.49-1.571-1.571-1.571z"/>
</svg>
